src/icons/gitlab.svg

<svg fill="none" height="23" viewBox="0 0 24 23" width="24" xmlns="http://www.w3.org/2000/svg"><g clip-rule="evenodd" fill-rule="evenodd"><path d="m12 22.1085 4.4191-13.60044h-8.83817z" fill="#e24329"/><path d="m12 22.1085-4.41909-13.60044h-6.19321z" fill="#fc6d26"/><path d="m1.38772 8.50806-1.3428733 4.13304c-.1224851.3769.0116652.7899.3323453 1.0229l11.622808 8.4445z" fill="#fca326"/><path d="m1.3877 8.50752h6.19321l-2.66162-8.1914c-.13689-.42155-.73319-.421436-.87009 0z" fill="#e24329"/><path d="m12 22.1085 4.4191-13.60044h6.1932z" fill="#fc6d26"/><path d="m22.6123 8.50806 1.3429 4.13304c.1224.3769-.0117.7899-.3324 1.0229l-11.6228 8.4445z" fill="#fca326"/><path d="m22.6123 8.50752h-6.1932l2.6616-8.1914c.1369-.42155.7332-.421436.8701 0z" fill="#e24329"/></g></svg>

<svg fill="none" height="23" width="24" xmlns="http://www.w3.org/2000/svg"><g clip-rule="evenodd" fill-rule="evenodd"><path d="M12 22.108l4.42-13.6H7.58z" fill="#e24329"/><path d="M12 22.108l-4.42-13.6H1.389z" fill="#fc6d26"/><path d="M1.388 8.508L.045 12.641a.915.915 0 00.332 1.023L12 22.109z" fill="#fca326"/><path d="M1.388 8.508H7.58L4.919.316a.457.457 0 00-.87 0z" fill="#e24329"/><path d="M12 22.108l4.42-13.6h6.192z" fill="#fc6d26"/><path d="M22.612 8.508l1.343 4.133a.915.915 0 01-.332 1.023L12 22.109z" fill="#fca326"/><path d="M22.612 8.508H16.42L19.081.316a.457.457 0 01.87 0z" fill="#e24329"/></g></svg>
